svg/fluentui-system-icons/ic_fluent_text_align_right_20_filled.svg

<svg width="20" height="20" viewBox="0 0 20 20" fill="none" xmlns="http://www.w3.org/2000/svg">
<path d="M6 4.25C6 3.83579 6.33579 3.5 6.75 3.5H17.25C17.6642 3.5 18 3.83579 18 4.25C18 4.66421 17.6642 5 17.25 5H6.75C6.33579 5 6 4.66421 6 4.25ZM2 9.25C2 8.83579 2.33579 8.5 2.75 8.5H17.25C17.6642 8.5 18 8.83579 18 9.25C18 9.66421 17.6642 10 17.25 10H2.75C2.33579 10 2 9.66421 2 9.25ZM9.75 13.5C9.33579 13.5 9 13.8358 9 14.25C9 14.6642 9.33579 15 9.75 15H17.25C17.6642 15 18 14.6642 18 14.25C18 13.8358 17.6642 13.5 17.25 13.5H9.75Z" fill="#212121"/>
</svg>

<svg xmlns="http://www.w3.org/2000/svg" width="20" height="20"><path d="M6 4.25a.75.75 0 0 1 .75-.75h10.5a.75.75 0 0 1 0 1.5H6.75A.75.75 0 0 1 6 4.25Zm-4 5a.75.75 0 0 1 .75-.75h14.5a.75.75 0 0 1 0 1.5H2.75A.75.75 0 0 1 2 9.25Zm7.75 4.25a.75.75 0 0 0 0 1.5h7.5a.75.75 0 0 0 0-1.5h-7.5Z"/></svg>
